Pods/ProtonCore-UIFoundations/libraries/UIFoundations/Sources/Assets.xcassets/Images/IconSet/ic-arrow-down-arrow-up.imageset/ic-arrow-down-arrow-up.svg

<svg width="24" height="24" viewBox="0 0 24 24" fill="none" xmlns="http://www.w3.org/2000/svg">
<path fill-rule="evenodd" clip-rule="evenodd" d="M6.75 1.5C7.16421 1.5 7.5 1.83579 7.5 2.25L7.5 19.9394L10.7197 16.7197C11.0126 16.4268 11.4874 16.4268 11.7803 16.7197C12.0732 17.0126 12.0732 17.4875 11.7803 17.7804L7.28033 22.2804C7.13968 22.421 6.94891 22.5 6.75 22.5C6.55109 22.5 6.36032 22.421 6.21967 22.2804L1.71967 17.7804C1.42678 17.4875 1.42678 17.0126 1.71967 16.7197C2.01256 16.4268 2.48744 16.4268 2.78033 16.7197L6 19.9394L6 2.25C6 1.83579 6.33579 1.5 6.75 1.5ZM17.25 1.50004C17.4489 1.50004 17.6397 1.57906 17.7803 1.71971L22.2803 6.21971C22.5732 6.5126 22.5732 6.98747 22.2803 7.28037C21.9874 7.57326 21.5126 7.57326 21.2197 7.28037L18 4.0607V21.72C18 22.1343 17.6642 22.47 17.25 22.47C16.8358 22.47 16.5 22.1343 16.5 21.72V4.0607L13.2803 7.28037C12.9874 7.57326 12.5126 7.57326 12.2197 7.28037C11.9268 6.98747 11.9268 6.5126 12.2197 6.21971L16.7197 1.71971C16.8603 1.57905 17.0511 1.50004 17.25 1.50004Z" fill="#0C0C14"/>
</svg>

<svg xmlns="http://www.w3.org/2000/svg" width="24" height="24" viewBox="0 0 24 24">
  <g class="ic-arrow-down-arrow-up">
    <path fill-rule="evenodd" d="M6.75 1.5a.75.75 0 0 1 .75.75v17.69l3.22-3.22a.75.75 0 1 1 1.06 1.06l-4.5 4.5a.75.75 0 0 1-1.06 0l-4.5-4.5a.75.75 0 0 1 1.06-1.06L6 19.94V2.25a.75.75 0 0 1 .75-.75Zm10.5 0a.75.75 0 0 1 .53.22l4.5 4.5a.75.75 0 0 1-1.06 1.06L18 4.06v17.66a.75.75 0 1 1-1.5 0V4.06l-3.22 3.22a.75.75 0 1 1-1.06-1.06l4.5-4.5a.75.75 0 0 1 .53-.22Z" class="Icon"/>
  </g>
</svg>
